X:1
T:James Gibb editions
T:Deus tu convertens - Fux
T:#
%%score [ 1 2 3 4 ]
L:1/8
Q:1/4=180
M:none
K:C
V:1 treble nm="Cantus"
V:2 treble nm="Altus"
V:3 treble-8 nm="Tenor"
V:4 bass nm="Bassus"
V:1
"^Deus tu convertens""^Johann Joseph Fux\n(1660 - 1741)" z16 | z16 | z16 | z16 | A16 | E4 A8 B4 | %6
w: ||||De-|us tu con-|
 c8 A4 d4 | c4 B4 (c4 d4- | d2 c2 c6 BA B4- | B4 A8) ^G4 | A4 A8 c4 | B4 G4 B4 B2 c2 | %12
w: ver- tens vi-|vi- fi- ca\- *||* * bis|nos, tu con-|ver- tens vi- vi- fi-|
 (d6 c2 B4) B4 | A4 c8 B4 | (A4 G4) A4 (F2 G2) | A4 (G2 F2) (E4 e4- | e2 d2 c8 d4- | d2 c2 c8) B4 | %18
w: ca\- * * bis|nos, tu con-|ver\- * tens vi\- *|vi- fi\- * ca\- *||* * * bis|
 c16 | z16 | z8 z4 G4- | G4 G4 A8 | G8 z4 G4 | (F2 G2 A2 B2 c4 B2 A2 | B2 c2 d6 c2 c4- | %25
w: nos,||et|* plebs tu-|a lae-|ta\- * * * * * *||
 c4) B4 c4 A4 | G8 z8 | z16 | c4 c4 d8 | c8 z4 B4 | (A2 B2 c2 d2 e8- | e4 c4 B4 B4- | %32
w: * bi- tur in|te,||et plebs tu-|a lae-|ta\- * * * *|* bi- tur, lae\-|
 B4 A8 (^G2 ^F2) | ^G4 G4 A8 ||[M:4/4]"^tempo ordinario"[Q:1/4=120] z8 | z4 z2 c2 | %36
w: * ta- bi\- *|tur in te.||O-|
[M:4/4][Q:1/4=120][Q:1/4=120][Q:1/4=120][Q:1/4=120] c2 _B2 A4 | G2 A4 G2 | A4 z2 c2 | d2 c2 _B3 A | %40
w: sten- de no-|bis, Do- mi-|ne, mi-|se- ri- cor- di-|
 G2 A_B c2) c2- | c2 B2 c4 | z2 c2 c2 B2 | c4 B4 | A3 A ^G2 (A2- | ABcB A3) A | ^G2 B2 c2 B2 | %47
w: am * * * tu\-|* * am,|o- sten- de|no- bis|Do- mi- nem Do\-|* * * * * mi-|ne, mi- se- ri-|
 (c3 B AB ^c>)d | d2 d2 c2 G2 | A>A A2 (G2 ^F2) | E4 z2 c2 | c2 d2 c2 G2 | (G2 ^F2) G2 B2 | %53
w: cor\- * * * * di-|am, mi- se- ri-|cor- di- am tu\- *|am et|sa- lu- ta- re|tu\- * um, et|
 B2 c2 AB (c2- | c2 B2) c2 G2 | A4 BB (c2- | c2 B2) c4 | z2 c2 (ed) (dc) | (c6 BA | ^G2) A2 A2 G2 | %60
w: sa- lu- ta- re tu\-|* * um, da|no- bis, da no\-|* * bis,|et sa\- * lu\- *|ta\- * *|* re tu- um|
 z2[Q:1/4=119] c2[Q:1/4=116] (d4- |[Q:1/4=113] d2[Q:1/4=112] c2[Q:1/4=110] B2[Q:1/4=109] A2- | %62
w: da no\-||
[Q:1/4=107] A2[Q:1/4=106] ^G[Q:1/4=105]^F[Q:1/4=103] G4) |[Q:1/4=102] A16 |] %64
w: |bis.|
V:2
 z16 | E8 A,4 E4- | E4 F4 G8 | E4 A4 G4 E4 | (F4 D2 E2 F4 E4- | E2 D2 C2 B,2 C4) D4 | E4 E4 C4 F4 | %7
w: |De- us tu|* con- ver-|tens vi- vi- fi-|ca\- * * * *|* * * * * bis|nos, vi- vi- fi-|
 (E4 F4 E4 D4 | E6 DC D4) D4 | E8 z4 E4- | E4 F4 E4 C4 | E4 E2 F2 (G4 F2 E2 | D4 A8) ^G4 | %13
w: ca\- * * *|* * * * bis|nos, tu|* con- ver- tens|vi- vi- fi- ca\- * *|* * bis|
 A8 z4 (D2 E2) | F4 G4 (F2 A4 G2 | F4 E2 D2 C2 D2 E4- | E2 F2 G6 F2 F4- | F4 E4 D4) D4 | E16 | %19
w: nos, vi\- *|vi- fi- ca\- * *|||* * * bis|nos,|
 z16 | z16 | z8 C4 D4 | E8 D8 | z4 D4 (C2 D2 E2 F2 | G6) F2 E4 (D2 C2) | G4 G4 E8- | E8 z8 | %27
w: ||et plebs|tu- a|lae- ta\- * * *|* bi- tur in *|te, in te,||
 z4 G8 G4 | A4 G4 z4 F4 | (E4 C2 D2 E2 F2 G2 E2 | F4) D4 C4 (E2 F2) | (G2 E2 A8 G2 F2 | %32
w: et plebs|tu- a lae-|ta\- * * * * * *|* bi- tur, lae\- *|ta\- * * * *|
 E6) E2 E8- | E4 E4 E8 ||[M:4/4] z2 A2 A2 G2 | F6 E2 |[M:4/4] (D3 E F3) F | E4 D3 D | %38
w: * bi- tur|* in te.|O- sten- de|no- bis,|Do\- * * mi-|ne, Do- mi-|
 ^C2 E2 F2 E2 | (D2 EF G3) F | (E2 FG A3 G) | F4 E4 | z8 | z2 F2 F2 E2 | F4 E4 | (F2 E4) D2 | E8 | %47
w: ne, mi- se- ri-|cor\- * * * di-|am * * * *|tu- am,||o- sten- de|no- bis|Do\- * mi-|ne|
 z2 E2 F2 E2 | F2 G2 (E2 D2) | (E6 ^D2) | E4 z2 E2 | E2 D2 E2 D2 | (E2 C2) D2 D2 | D2 E2 CD (E2 | %54
w: mi- se- ri-|cor- di- am *|tu\- *|am et|sa- lu- ta- re|tu\- * um, et|sa- lu- ta- re tu\-|
 F4) E2 E2 | F6 EE | D4 E4 | z4 z2 F2 | (AG) (GF) F4 | E4 E2 E2 | z4 z2 F2 | E8- | E8 | E16 |] %64
w: * um, da|no- bis, da|no- bis,|et|sa\- * lu\- * ta-|re tu- um|da|no\-||bis.|
V:3
 A8 E4 A4- | A4 B4 c8 | A4 d4 c4 B4 | (c6 d2 e4 d2 c2 | d2 e2 f2 e2 d4 c4- | c2 B2 A2 G2 F4) F4 | %6
w: De- us tu|* con- ver-|tens vi- vi- fi-|ca\- * * * *||* * * * * bis|
 E4 E4 F6 G2 | (A4 d4 c4 B4 | c6 BA G6 AB | c8) B8 | A16 | z16 | z16 | z8 A4 B4 | c8 A4 d4 | %15
w: nos, vi- vi- fi-|ca\- * * *||* bis|nos.|||tu con-|ver- tens vi-|
 c4 B4 (c6 d2 | e6 d2 c4) (B2 A2) | G8 z4 G4- | G4 G4 A8 | G8 z4 G4 | (F2 G2 A2 B2 c2 B2 G2 A2 | %21
w: vi- fi- ca\- *|* * * bis *|nos et|* plebs tu-|a lae-|ta\- * * * * * * *|
 B2 d2 c2 B2 A4) A4 | B4 c4 B8 | z16 | z8 c4 c4 | d8 c8 | z4 G4 (F2 G2 A2 B2 | c6) c2 B8 | %28
w: * * * * * bi-|tur in te,||et plebs|tu- a|lae- ta\- * * *|* bi- tur,|
 z4 G4 (F2 G2 A2 B2 | c4) c4 B4 G4 | (F2 G2 A2 B2 c4) c4 | B4 (c2 d2) (e6 d2 | c6) c2 B8- | %33
w: lae- ta\- * * *|* bi- tur, lae-|ta\- * * * * bi-|tur, lae\- * ta\- *|* bi- tur|
 B4 B4 A8 ||[M:4/4] z4 z2 c2 | c2 _B2 A2 G2 |[M:4/4][K:treble-8] z2 d3 c A2 | _B2 c2 F F2 D | %38
w: * in te.|O-|sten- de no- bis|Do- mi- ne,|Do- mi- ne, Do- mi-|
 E4 z2 A2 | _B2 A2 G2 D2 | E2 D2 E2 (A2- | A2 F2) G4 | z2 A2 A2 ^G2 | A4 ^G4 | A3 A B2 (e2- | %45
w: ne, mi-|se- ri- cor- di-|am tu- am, tu\-|* * am,|o- sten- de|no- bis|Do- mi- ne, Do\-|
 ed c4) A2 | B2 ^G2 A2 G2 | (A3 G FG A>)A | D2 d2 G2 (AB) | c>c c2 B4 | B4 z2 G2 | G2 G2 (GA) B2 | %52
w: * * * mi-|ne, mi- se- ri-|cor\- * * * * di-|am, mi- se- ri\- *|cor- di- am tu-|am et|sa- lu- ta\- * re|
 c4 B2 G2 | G2 G2 A2 G2 | A2 F2 G4 | z2 (d2- d/c/B/A/) G2 | G8 | z2 A2 (cB) (BA) | (A6 B2- | %59
w: tu- um, et|sa- lu- ta- re|tu\- * um,|da * * * * no-|bis,|et sa\- * lu\- *|ta\- *|
 B2) c2 c2 B2 | z2 A2 (B4- | B2 A2) ^G2 c2 | (B3 A B4) | A16 |] %64
w: * re tu- um|da no\-|* * bis, da|no\- * *|bis.|
V:4
 z16 | z16 | z16 | z16 | z16 | z16 | z16 | z16 | z16 | E,16 | A,,8 z8 | z16 | z4 D,8 E,4 | %13
w: |||||||||De-|us||tu con-|
 F,8 D,4 G,4 | F,4 E,4 (F,4 D,2 E,2 | F,4 G,4 A,6 B,2 | C6 B,2 A,4 G,2 F,2 | G,8) G,,8 | %18
w: ver- tens vi-|vi- fi- ca\- * *|||* bis|
 C,8 z4 C,4- | C,4 C,4 E,8 | D,4 D,4 (C,2 D,2 E,2 F,2 | G,2 G,,2 G,8) ^F,4 | G,4 C,4 G,8 | %23
w: nos, et|* plebs tu-|a lae- ta\- * * *|* * * bi-|tur in te,|
 z8 z4 G,4- | G,4 G,4 A,8 | G,4 G,,4 (A,,2 B,,2 C,2 D,2 | E,6 E,2 D,4 D,4 | %27
w: et|* plebs tu-|a lae- ta\- * * *|* bi- tur, lae-|
 (C,2 D,2 E,2 F,2 G,6) G,2 | F,4 E,4 D,2 E,2 F,2 G,2 | A,4) A,4 G,8 | z4 B,,4 (A,,2 B,,2 C,2 D,2 | %31
w: ta\- * * * * bi-|tur, lae- ta\- * * *|* bi- tur,|lae- ta\- * * *|
 E,4 E,4 E,4 E,4 | A,4 A,,4 E,8- | E,4 E,4 A,,8 ||[M:4/4] z2 F,2 F,2 E,2 | D,4 C,4 | %36
w: * bi- tur, lae-|ta- bi- tur|* in te.|O- sten- de|no- bis,|
[M:4/4] G,,A,,_B,,C, D,A,, D,2- | D,2 C,2 _B,,3) B,, | A,,4 z4 | z4 z2 _B,,2 | %40
w: Do\- * * * * * *|* * * mi-|ne,|mi-|
 C,2 _B,,2 A,,2 B,,C, | D,4 C,4 | z8 | z8 | z2 D,2 D,2 ^C,2 | D,2 E,2 F,3 F, | E,4 z4 | z8 | %48
w: se- ri- cor- di- am|tu- am,|||o- sten- de|no- bis Do- mi-|ne,||
 z2 B,,2 C,2 B,,2 | A,,>A,, A,,2 B,,4 | E,,4 z2 C,2 | C,2 B,,2 C,2 B,,2 | A,,4 G,,2 G,2 | %53
w: mi- se- ri-|cor- di- am tu-|am et|sa- lu- ta- re|tu- um, et|
 G,2 E,2 F,2 E,2 | D,4 C,4 | z2 F,2 (G,4 | G,,4) C,4 | z4 z2 D,2 | (F,E,) (E,D,) D,4- | %59
w: sa- lu- ta- re|tu- um,|da no\-|* bis,|et|sa\- * lu\- * ta\-|
 D,2 (C,D,) E,2 E,2 | z4 z2 D,2 | E,8- | E,8 | A,,16 |] %64
w: * re * tu- um,|da|no\-||bis.|

